libs/common/icons/src/icons/ConfigurationSolid.svg

<svg width="24" height="24" viewBox="0 0 24 24" fill="none" xmlns="http://www.w3.org/2000/svg">
<path d="M21.5303 9.93168L19.0978 8.58137C18.9272 8.22615 18.7302 7.88426 18.5084 7.55856L18.5552 4.77529C17.5236 3.83981 16.3033 3.13645 14.9767 2.71265L12.591 4.14408C12.1981 4.1142 11.8035 4.11388 11.4106 4.14314L9.02359 2.71094C7.69761 3.13663 6.47835 3.84175 5.44804 4.77872L5.49487 7.56046C5.27252 7.88579 5.07494 8.22737 4.90381 8.58233L2.46998 9.9334C2.17568 11.2946 2.17669 12.7031 2.47295 14.0638L4.90541 15.4141C5.07601 15.7693 5.27305 16.1112 5.49488 16.4369L5.448 19.2202C6.47967 20.1557 7.69997 20.8591 9.02657 21.2829L11.4122 19.8514C11.8051 19.8813 12.1997 19.8816 12.5927 19.8524L14.9797 21.2846C16.3056 20.8589 17.5249 20.1538 18.5552 19.2168L18.5084 16.435C18.7307 16.1097 18.9283 15.7681 19.0994 15.4132L21.5333 14.0621C21.8276 12.7009 21.8266 11.2924 21.5303 9.93168V9.93168ZM12.0016 16.4978C11.1116 16.4978 10.2416 16.2338 9.50155 15.7394C8.76153 15.2449 8.18476 14.5421 7.84416 13.7198C7.50357 12.8976 7.41445 11.9928 7.58809 11.1198C7.76172 10.2469 8.1903 9.44511 8.81964 8.81577C9.44898 8.18644 10.2508 7.75785 11.1237 7.58422C11.9966 7.41059 12.9014 7.4997 13.7237 7.8403C14.546 8.18089 15.2488 8.75767 15.7432 9.49769C16.2377 10.2377 16.5016 11.1077 16.5016 11.9978C16.5016 12.5887 16.3852 13.1739 16.1591 13.7198C15.9329 14.2658 15.6015 14.7619 15.1836 15.1797C14.7657 15.5976 14.2697 15.9291 13.7237 16.1552C13.1777 16.3814 12.5926 16.4978 12.0016 16.4978V16.4978Z" fill="currentColor"/>
<path d="M18.5084 7.55856C18.7302 7.88425 18.9272 8.22615 19.0978 8.58137L21.5303 9.93169C21.8266 11.2924 21.8276 12.7009 21.5333 14.0621L19.0994 15.4132C18.9283 15.7681 18.7307 16.1097 18.5084 16.435L18.5552 19.2168C17.5249 20.1537 16.3056 20.8589 14.9797 21.2846L12.5927 19.8524C12.1997 19.8816 11.8051 19.8813 11.4122 19.8514L9.02655 21.2828C7.69996 20.859 6.47968 20.1557 5.44802 19.2202L5.49487 16.4369C5.27305 16.1112 5.07601 15.7693 4.90542 15.4141L2.47297 14.0638C2.17669 12.7031 2.17567 11.2946 2.46998 9.93341L4.9038 8.58234C5.07494 8.22739 5.27252 7.8858 5.49486 7.56046L5.44804 4.77873C6.47834 3.84176 7.6976 3.13665 9.02358 2.71094L11.4105 4.14315C11.8035 4.11389 12.1981 4.1142 12.5911 4.14408L14.9767 2.71266C16.3033 3.13646 17.5236 3.83981 18.5552 4.77528L18.5084 7.55856Z" stroke="currentColor" stroke-linecap="round" stroke-linejoin="round"/>
<path d="M12 16.5C14.4853 16.5 16.5 14.4853 16.5 12C16.5 9.51472 14.4853 7.5 12 7.5C9.51472 7.5 7.5 9.51472 7.5 12C7.5 14.4853 9.51472 16.5 12 16.5Z" stroke="currentColor" stroke-linecap="round" stroke-linejoin="round"/>
</svg>

<svg xmlns="http://www.w3.org/2000/svg" width="24" height="24" fill="none" viewBox="0 0 24 24">
  <path fill="currentColor" d="m21.53 9.932-2.432-1.35a7.87 7.87 0 0 0-.59-1.023l.047-2.784a9.739 9.739 0 0 0-3.578-2.062L12.59 4.144a7.864 7.864 0 0 0-1.18 0L9.024 2.71a9.74 9.74 0 0 0-3.576 2.068l.047 2.781c-.222.326-.42.667-.591 1.022L2.47 9.933a9.74 9.74 0 0 0 .003 4.13l2.432 1.351c.171.355.368.697.59 1.023l-.047 2.783a9.74 9.74 0 0 0 3.579 2.063l2.385-1.432c.393.03.788.03 1.18.001l2.388 1.433a9.74 9.74 0 0 0 3.575-2.068l-.047-2.782c.223-.325.42-.667.591-1.022l2.434-1.35a9.74 9.74 0 0 0-.003-4.131Zm-9.528 6.566a4.5 4.5 0 1 1 0-9.001 4.5 4.5 0 0 1 0 9Z"/>
  <path stroke="currentColor" stroke-linecap="round" stroke-linejoin="round" d="M18.508 7.559c.222.325.42.667.59 1.022l2.432 1.35a9.74 9.74 0 0 1 .003 4.131L19.1 15.413a7.864 7.864 0 0 1-.59 1.022l.046 2.782a9.74 9.74 0 0 1-3.575 2.068l-2.387-1.433c-.393.03-.788.03-1.18 0l-2.386 1.43a9.74 9.74 0 0 1-3.579-2.062l.047-2.783a7.869 7.869 0 0 1-.59-1.023l-2.432-1.35a9.74 9.74 0 0 1-.003-4.13l2.434-1.352c.17-.355.369-.696.59-1.022L5.449 4.78A9.74 9.74 0 0 1 9.024 2.71l2.387 1.432c.393-.03.787-.029 1.18.001l2.386-1.431a9.74 9.74 0 0 1 3.578 2.062l-.047 2.784Z"/>
  <path stroke="currentColor" stroke-linecap="round" stroke-linejoin="round" d="M12 16.5a4.5 4.5 0 1 0 0-9 4.5 4.5 0 0 0 0 9Z"/>
</svg>
